src/lib/assets/client.pp3
[Exposure]
Enabled=true
Auto=false
Compensation=0
Brightness=0
Contrast=0
Saturation=0
HighlightCompr=0
ShadowCompr=0
Black=0

[Rotation]
Enabled=true
Degree=0

# [Crop]
# X=0
# Y=0
# W=0
# H=0
# FixedRatio=false
# Ratio=1:1

[Film Simulation]
Enabled=true
Strength=100

[White Balance]
Enabled=true
Setting=Camera
# Temperature=
# Green=

[Sharpening]
Enabled=true
Radius=0.5
Amount=0

[FattalToneMapping]
Enabled=false
Threshold=30
Amount=20
Anchor=50